output/footprints/LKBD_PlateMX.pretty/Plate_MX_2.5U.svg

<?xml version="1.0" standalone="no"?>
 <!DOCTYPE svg PUBLIC "-//W3C//DTD SVG 1.1//EN" 
 "http://www.w3.org/Graphics/SVG/1.1/DTD/svg11.dtd"> 
<svg
  xmlns:svg="http://www.w3.org/2000/svg"
  xmlns="http://www.w3.org/2000/svg"
  xmlns:xlink="http://www.w3.org/1999/xlink"
  version="1.1"
  width="47.7012mm" height="19.1262mm" viewBox="0.0000 0.0000 47.7012 19.1262">
<title>SVG Image created as Plate_MX_2.5U.svg date 2025/05/12 22:52:38 </title>
  <desc>Image generated by PCBNEW </desc>
<g style="fill:#000000; fill-opacity:1.0000;stroke:#000000; stroke-opacity:1.0000;
stroke-linecap:round; stroke-linejoin:round;"
 transform="translate(0 0) scale(1 1)">
</g>
<g style="fill:none; 
stroke:#4D7FC4; stroke-width:0.5000; stroke-opacity:1; 
stroke-linecap:round; stroke-linejoin:round;">
<path d="M16.6125 16.0750
L16.6125 3.0750
" />
<path d="M17.3625 2.3250
L30.3625 2.3250
" />
<path d="M30.3625 16.8250
L17.3625 16.8250
" />
<path d="M31.1125 3.0750
L31.1125 16.0750
" />
<path d="M17.3625 2.3250 A0.7500 0.7500 0.0 0 0 16.6125 3.0750" />
<path d="M16.6125 16.0750 A0.7500 0.7500 0.0 0 0 17.3625 16.8250" />
<path d="M31.1125 3.0750 A0.7500 0.7500 0.0 0 0 30.3625 2.3250" />
<path d="M30.3625 16.8250 A0.7500 0.7500 0.0 0 0 31.1125 16.0750" />
</g>
<g style="fill:none; 
stroke:#C83434; stroke-width:0.5000; stroke-opacity:1; 
stroke-linecap:round; stroke-linejoin:round;">
<path d="M16.6125 16.0750
L16.6125 3.0750
" />
<path d="M17.3625 2.3250
L30.3625 2.3250
" />
<path d="M30.3625 16.8250
L17.3625 16.8250
" />
<path d="M31.1125 3.0750
L31.1125 16.0750
" />
<path d="M17.3625 2.3250 A0.7500 0.7500 0.0 0 0 16.6125 3.0750" />
<path d="M16.6125 16.0750 A0.7500 0.7500 0.0 0 0 17.3625 16.8250" />
<path d="M31.1125 3.0750 A0.7500 0.7500 0.0 0 0 30.3625 2.3250" />
<path d="M30.3625 16.8250 A0.7500 0.7500 0.0 0 0 31.1125 16.0750" />
</g>
<g style="fill:none; 
stroke:#AFAFAF; stroke-width:0.1500; stroke-opacity:1; 
stroke-linecap:round; stroke-linejoin:round;">
<text x="23.8625" y="9.2750"
textLength="11.1548" font-size="1.3333" lengthAdjust="spacingAndGlyphs"
text-anchor="middle" opacity="0" stroke-opacity="0">Plate_MX_2.5U</text>
<g class="stroked-text"><desc>Plate_MX_2.5U</desc>
<path d="M18.6482 9.2298
L18.6482 8.2298
" />
<path d="M18.6482 8.2298
L19.0292 8.2298
" />
<path d="M19.0292 8.2298
L19.1244 8.2774
" />
<path d="M19.1244 8.2774
L19.1720 8.3251
" />
<path d="M19.1720 8.3251
L19.2196 8.4203
" />
<path d="M19.2196 8.4203
L19.2196 8.5632
" />
<path d="M19.2196 8.5632
L19.1720 8.6584
" />
<path d="M19.1720 8.6584
L19.1244 8.7060
" />
<path d="M19.1244 8.7060
L19.0292 8.7536
" />
<path d="M19.0292 8.7536
L18.6482 8.7536
" />
<path d="M19.7911 9.2298
L19.6958 9.1822
" />
<path d="M19.6958 9.1822
L19.6482 9.0870
" />
<path d="M19.6482 9.0870
L19.6482 8.2298
" />
<path d="M20.6006 9.2298
L20.6006 8.7060
" />
<path d="M20.6006 8.7060
L20.5530 8.6108
" />
<path d="M20.5530 8.6108
L20.4577 8.5632
" />
<path d="M20.4577 8.5632
L20.2673 8.5632
" />
<path d="M20.2673 8.5632
L20.1720 8.6108
" />
<path d="M20.6006 9.1822
L20.5054 9.2298
" />
<path d="M20.5054 9.2298
L20.2673 9.2298
" />
<path d="M20.2673 9.2298
L20.1720 9.1822
" />
<path d="M20.1720 9.1822
L20.1244 9.0870
" />
<path d="M20.1244 9.0870
L20.1244 8.9917
" />
<path d="M20.1244 8.9917
L20.1720 8.8965
" />
<path d="M20.1720 8.8965
L20.2673 8.8489
" />
<path d="M20.2673 8.8489
L20.5054 8.8489
" />
<path d="M20.5054 8.8489
L20.6006 8.8012
" />
<path d="M20.9339 8.5632
L21.3149 8.5632
" />
<path d="M21.0768 8.2298
L21.0768 9.0870
" />
<path d="M21.0768 9.0870
L21.1244 9.1822
" />
<path d="M21.1244 9.1822
L21.2196 9.2298
" />
<path d="M21.2196 9.2298
L21.3149 9.2298
" />
<path d="M22.0292 9.1822
L21.9339 9.2298
" />
<path d="M21.9339 9.2298
L21.7435 9.2298
" />
<path d="M21.7435 9.2298
L21.6482 9.1822
" />
<path d="M21.6482 9.1822
L21.6006 9.0870
" />
<path d="M21.6006 9.0870
L21.6006 8.7060
" />
<path d="M21.6006 8.7060
L21.6482 8.6108
" />
<path d="M21.6482 8.6108
L21.7435 8.5632
" />
<path d="M21.7435 8.5632
L21.9339 8.5632
" />
<path d="M21.9339 8.5632
L22.0292 8.6108
" />
<path d="M22.0292 8.6108
L22.0768 8.7060
" />
<path d="M22.0768 8.7060
L22.0768 8.8012
" />
<path d="M22.0768 8.8012
L21.6006 8.8965
" />
<path d="M22.2673 9.3251
L23.0292 9.3251
" />
<path d="M23.2673 9.2298
L23.2673 8.2298
" />
<path d="M23.2673 8.2298
L23.6006 8.9441
" />
<path d="M23.6006 8.9441
L23.9339 8.2298
" />
<path d="M23.9339 8.2298
L23.9339 9.2298
" />
<path d="M24.3149 8.2298
L24.9815 9.2298
" />
<path d="M24.9815 8.2298
L24.3149 9.2298
" />
<path d="M25.1244 9.3251
L25.8863 9.3251
" />
<path d="M26.0768 8.3251
L26.1244 8.2774
" />
<path d="M26.1244 8.2774
L26.2196 8.2298
" />
<path d="M26.2196 8.2298
L26.4577 8.2298
" />
<path d="M26.4577 8.2298
L26.5530 8.2774
" />
<path d="M26.5530 8.2774
L26.6006 8.3251
" />
<path d="M26.6006 8.3251
L26.6482 8.4203
" />
<path d="M26.6482 8.4203
L26.6482 8.5155
" />
<path d="M26.6482 8.5155
L26.6006 8.6584
" />
<path d="M26.6006 8.6584
L26.0292 9.2298
" />
<path d="M26.0292 9.2298
L26.6482 9.2298
" />
<path d="M27.0768 9.1346
L27.1244 9.1822
" />
<path d="M27.1244 9.1822
L27.0768 9.2298
" />
<path d="M27.0768 9.2298
L27.0292 9.1822
" />
<path d="M27.0292 9.1822
L27.0768 9.1346
" />
<path d="M27.0768 9.1346
L27.0768 9.2298
" />
<path d="M28.0292 8.2298
L27.5530 8.2298
" />
<path d="M27.5530 8.2298
L27.5054 8.7060
" />
<path d="M27.5054 8.7060
L27.5530 8.6584
" />
<path d="M27.5530 8.6584
L27.6482 8.6108
" />
<path d="M27.6482 8.6108
L27.8863 8.6108
" />
<path d="M27.8863 8.6108
L27.9815 8.6584
" />
<path d="M27.9815 8.6584
L28.0292 8.7060
" />
<path d="M28.0292 8.7060
L28.0768 8.8012
" />
<path d="M28.0768 8.8012
L28.0768 9.0393
" />
<path d="M28.0768 9.0393
L28.0292 9.1346
" />
<path d="M28.0292 9.1346
L27.9815 9.1822
" />
<path d="M27.9815 9.1822
L27.8863 9.2298
" />
<path d="M27.8863 9.2298
L27.6482 9.2298
" />
<path d="M27.6482 9.2298
L27.5530 9.1822
" />
<path d="M27.5530 9.1822
L27.5054 9.1346
" />
<path d="M28.5054 8.2298
L28.5054 9.0393
" />
<path d="M28.5054 9.0393
L28.5530 9.1346
" />
<path d="M28.5530 9.1346
L28.6006 9.1822
" />
<path d="M28.6006 9.1822
L28.6958 9.2298
" />
<path d="M28.6958 9.2298
L28.8863 9.2298
" />
<path d="M28.8863 9.2298
L28.9815 9.1822
" />
<path d="M28.9815 9.1822
L29.0292 9.1346
" />
<path d="M29.0292 9.1346
L29.0768 9.0393
" />
<path d="M29.0768 9.0393
L29.0768 8.2298
" />
</g><text x="23.8625" y="10.8750"
textLength="4.5357" font-size="1.3333" lengthAdjust="spacingAndGlyphs"
text-anchor="middle" opacity="0" stroke-opacity="0">REF**</text>
<g class="stroked-text"><desc>REF**</desc>
<path d="M22.5292 10.8298
L22.1958 10.3536
" />
<path d="M21.9577 10.8298
L21.9577 9.8298
" />
<path d="M21.9577 9.8298
L22.3387 9.8298
" />
<path d="M22.3387 9.8298
L22.4339 9.8774
" />
<path d="M22.4339 9.8774
L22.4815 9.9251
" />
<path d="M22.4815 9.9251
L22.5292 10.0203
" />
<path d="M22.5292 10.0203
L22.5292 10.1632
" />
<path d="M22.5292 10.1632
L22.4815 10.2584
" />
<path d="M22.4815 10.2584
L22.4339 10.3060
" />
<path d="M22.4339 10.3060
L22.3387 10.3536
" />
<path d="M22.3387 10.3536
L21.9577 10.3536
" />
<path d="M22.9577 10.3060
L23.2911 10.3060
" />
<path d="M23.4339 10.8298
L22.9577 10.8298
" />
<path d="M22.9577 10.8298
L22.9577 9.8298
" />
<path d="M22.9577 9.8298
L23.4339 9.8298
" />
<path d="M24.1958 10.3060
L23.8625 10.3060
" />
<path d="M23.8625 10.8298
L23.8625 9.8298
" />
<path d="M23.8625 9.8298
L24.3387 9.8298
" />
<path d="M24.8625 9.8298
L24.8625 10.0679
" />
<path d="M24.6244 9.9727
L24.8625 10.0679
" />
<path d="M24.8625 10.0679
L25.1006 9.9727
" />
<path d="M24.7196 10.2584
L24.8625 10.0679
" />
<path d="M24.8625 10.0679
L25.0054 10.2584
" />
<path d="M25.6244 9.8298
L25.6244 10.0679
" />
<path d="M25.3863 9.9727
L25.6244 10.0679
" />
<path d="M25.6244 10.0679
L25.8625 9.9727
" />
<path d="M25.4815 10.2584
L25.6244 10.0679
" />
<path d="M25.6244 10.0679
L25.7673 10.2584
" />
</g></g>
<g style="fill:none; 
stroke:#D0D2CD; stroke-width:0.0500; stroke-opacity:1; 
stroke-linecap:round; stroke-linejoin:round;">
<path d="M8.5812 4.0750
L8.5812 17.0750
" />
<path d="M9.0812 3.5750
L14.8312 3.5750
" />
<path d="M9.0812 17.5750
L14.8312 17.5750
" />
<path d="M15.3312 4.0750
L15.3312 17.0750
" />
<path d="M16.8625 16.0750
L16.8625 3.0750
" />
<path d="M17.3625 2.5750
L30.3625 2.5750
" />
<path d="M30.3625 16.5750
L17.3625 16.5750
" />
<path d="M30.8625 3.0750
L30.8625 16.0750
" />
<path d="M32.3937 4.0750
L32.3937 17.0750
" />
<path d="M32.8937 3.5750
L38.6425 3.5750
" />
<path d="M32.8937 17.5750
L38.6437 17.5750
" />
<path d="M39.1425 4.0750
L39.1437 17.0750
" />
<path d="M9.0813 3.5750 A0.5000 0.5000 0.0 0 0 8.5813 4.0750" />
<path d="M8.5813 17.0750 A0.5000 0.5000 0.0 0 0 9.0813 17.5750" />
<path d="M15.3312 4.0750 A0.5000 0.5000 0.0 0 0 14.8312 3.5750" />
<path d="M14.8313 17.5750 A0.5000 0.5000 0.0 0 0 15.3312 17.0750" />
<path d="M17.3625 2.5750 A0.5000 0.5000 0.0 0 0 16.8625 3.0750" />
<path d="M16.8625 16.0750 A0.5000 0.5000 0.0 0 0 17.3625 16.5750" />
<path d="M30.8625 3.0750 A0.5000 0.5000 0.0 0 0 30.3625 2.5750" />
<path d="M30.3625 16.5750 A0.5000 0.5000 0.0 0 0 30.8625 16.0750" />
<path d="M32.8937 3.5750 A0.5000 0.5000 0.0 0 0 32.3937 4.0750" />
<path d="M32.3937 17.0750 A0.5001 0.5001 0.0 0 0 32.8937 17.5750" />
<path d="M39.1426 4.0750 A0.5001 0.5001 0.0 0 0 38.6425 3.5750" />
<path d="M38.6438 17.5749 A0.4999 0.4999 0.0 0 0 39.1437 17.0750" />
<path style="fill:none; 
stroke:#C2C2C2; stroke-width:0.1000; stroke-opacity:1; 
stroke-linecap:round; stroke-linejoin:round;fill:none"
d="M 0.0500,0.0500
47.6750,0.0500
47.6750,19.1000
0.0500,19.1000
Z" /> 
</g> 
</svg>

<svg xmlns="http://www.w3.org/2000/svg" width="180.288" height="72.288" viewBox="0 0 47.701 19.126">
    <g style="fill:none;stroke:#4d7fc4;stroke-width:.5;stroke-opacity:1;stroke-linecap:round;stroke-linejoin:round">
        <path d="M16.613 16.075v-13M17.363 2.325h13M30.363 16.825h-13M31.113 3.075v13M17.363 2.325a.75.75 0 0 0-.75.75M16.613 16.075a.75.75 0 0 0 .75.75M31.113 3.075a.75.75 0 0 0-.75-.75M30.363 16.825a.75.75 0 0 0 .75-.75"/>
    </g>
    <g style="fill:none;stroke:#c83434;stroke-width:.5;stroke-opacity:1;stroke-linecap:round;stroke-linejoin:round">
        <path d="M16.613 16.075v-13M17.363 2.325h13M30.363 16.825h-13M31.113 3.075v13M17.363 2.325a.75.75 0 0 0-.75.75M16.613 16.075a.75.75 0 0 0 .75.75M31.113 3.075a.75.75 0 0 0-.75-.75M30.363 16.825a.75.75 0 0 0 .75-.75"/>
    </g>
    <g style="fill:none;stroke:#afafaf;stroke-width:.15;stroke-opacity:1;stroke-linecap:round;stroke-linejoin:round">
        <g class="stroked-text">
            <path d="M18.648 9.23v-1M18.648 8.23h.381M19.03 8.23l.094.047M19.124 8.277l.048.048M19.172 8.325l.048.095M19.22 8.42v.143M19.22 8.563l-.048.095M19.172 8.658l-.048.048M19.124 8.706l-.095.048M19.03 8.754h-.382M19.791 9.23l-.095-.048M19.696 9.182l-.048-.095M19.648 9.087V8.23M20.6 9.23v-.524M20.6 8.706l-.047-.095M20.553 8.61l-.095-.047M20.458 8.563h-.19M20.267 8.563l-.095.048M20.6 9.182l-.095.048M20.505 9.23h-.238M20.267 9.23l-.095-.048M20.172 9.182l-.048-.095M20.124 9.087v-.095M20.124 8.992l.048-.096M20.172 8.897l.095-.048M20.267 8.849h.238M20.505 8.849l.096-.048M20.934 8.563h.38M21.077 8.23v.857M21.077 9.087l.047.095M21.124 9.182l.096.048M21.22 9.23h.095M22.03 9.182l-.096.048M21.934 9.23h-.19M21.744 9.23l-.096-.048M21.648 9.182l-.047-.095M21.6 9.087v-.381M21.6 8.706l.048-.095M21.648 8.61l.096-.047M21.744 8.563h.19M21.934 8.563l.095.048M22.03 8.61l.047.096M22.077 8.706v.095M22.077 8.801l-.476.095M22.267 9.325h.762M23.267 9.23v-1M23.267 8.23l.334.714M23.6 8.944l.334-.714M23.934 8.23v1M24.315 8.23l.666 1M24.982 8.23l-.667 1M25.124 9.325h.762M26.077 8.325l.047-.048M26.124 8.277l.096-.047M26.22 8.23h.238M26.458 8.23l.095.047M26.553 8.277l.048.048M26.6 8.325l.048.095M26.648 8.42v.095M26.648 8.516l-.047.142M26.6 8.658l-.57.572M26.03 9.23h.618M27.077 9.135l.047.047M27.124 9.182l-.047.048M27.077 9.23l-.048-.048M27.03 9.182l.047-.047M27.077 9.135v.095M28.03 8.23h-.477M27.553 8.23l-.048.476M27.505 8.706l.048-.048M27.553 8.658l.095-.047M27.648 8.61h.238M27.886 8.61l.096.048M27.982 8.658l.047.048M28.03 8.706l.047.095M28.077 8.801v.238M28.077 9.04l-.048.095M28.03 9.135l-.049.047M27.982 9.182l-.096.048M27.886 9.23h-.238M27.648 9.23l-.095-.048M27.553 9.182l-.048-.047M28.505 8.23v.81M28.505 9.04l.048.095M28.553 9.135l.048.047M28.6 9.182l.096.048M28.696 9.23h.19M28.886 9.23l.096-.048M28.982 9.182l.047-.047M29.03 9.135l.047-.096M29.077 9.04v-.81"/>
        </g>
        <g class="stroked-text">
            <path d="m22.53 10.83-.334-.476M21.958 10.83v-1M21.958 9.83h.38M22.339 9.83l.095.047M22.434 9.877l.047.048M22.482 9.925l.047.095M22.53 10.02v.143M22.53 10.163l-.049.095M22.482 10.258l-.048.048M22.434 10.306l-.095.048M22.339 10.354h-.381M22.958 10.306h.333M23.434 10.83h-.476M22.958 10.83v-1M22.958 9.83h.476M24.196 10.306h-.334M23.863 10.83v-1M23.863 9.83h.476M24.863 9.83v.238M24.624 9.973l.239.095M24.863 10.068l.238-.095M24.72 10.258l.143-.19M24.863 10.068l.142.19M25.624 9.83v.238M25.386 9.973l.238.095M25.624 10.068l.239-.095M25.482 10.258l.142-.19M25.624 10.068l.143.19"/>
        </g>
    </g>
    <g style="fill:none;stroke:#d0d2cd;stroke-width:.05;stroke-opacity:1;stroke-linecap:round;stroke-linejoin:round">
        <path d="M8.581 4.075v13M9.081 3.575h5.75M9.081 17.575h5.75M15.331 4.075v13M16.863 16.075v-13M17.363 2.575h13M30.363 16.575h-13M30.863 3.075v13M32.394 4.075v13M32.894 3.575h5.749M32.894 17.575h5.75M39.143 4.075v13M9.081 3.575a.5.5 0 0 0-.5.5M8.581 17.075a.5.5 0 0 0 .5.5M15.331 4.075a.5.5 0 0 0-.5-.5M14.831 17.575a.5.5 0 0 0 .5-.5M17.363 2.575a.5.5 0 0 0-.5.5M16.863 16.075a.5.5 0 0 0 .5.5M30.863 3.075a.5.5 0 0 0-.5-.5M30.363 16.575a.5.5 0 0 0 .5-.5M32.894 3.575a.5.5 0 0 0-.5.5M32.394 17.075a.5.5 0 0 0 .5.5M39.143 4.075a.5.5 0 0 0-.5-.5M38.644 17.575a.5.5 0 0 0 .5-.5"/>
        <path d="M.05.05h47.625V19.1H.05Z" style="stroke:#c2c2c2;stroke-width:.1;stroke-opacity:1;stroke-linecap:round;stroke-linejoin:round;fill:none"/>
    </g>
</svg>
